img/icon_4.svg

<svg fill="none" height="80" viewBox="0 0 80 80" width="80" xmlns="http://www.w3.org/2000/svg" xmlns:xlink="http://www.w3.org/1999/xlink"><linearGradient id="a" gradientUnits="userSpaceOnUse" x1="38.4848" x2="47.5434" y1="51.6029" y2="25.3599"><stop offset="0" stop-color="#e94d00"/><stop offset=".5" stop-color="#f49300"/><stop offset="1" stop-color="#ffd900"/></linearGradient><linearGradient id="b" gradientUnits="userSpaceOnUse" x1="19.5989" x2="32.6512" y1="31.7993" y2="45.3483"><stop offset="0" stop-color="#ea5000"/><stop offset=".34" stop-color="#a83700"/><stop offset=".68" stop-color="#651d00"/></linearGradient><mask id="c" height="48" maskUnits="userSpaceOnUse" width="48" x="16" y="16"><path d="m64 16h-48v48h48z" fill="#fff"/></mask><path d="m0 24c0-13.2548 10.7452-24 24-24h32c13.2548 0 24 10.7452 24 24v32c0 13.2548-10.7452 24-24 24h-32c-13.2548 0-24-10.7452-24-24z" fill="#222425"/><g mask="url(#c)"><path d="m42.2616 46.1301c2.6861 0 4.867 2.5253 4.867 5.6354 0 3.1102-2.1809 5.6354-4.867 5.6354s-4.8671-2.5252-4.8671-5.6354c0-3.1101 2.181-5.6354 4.8671-5.6354z" stroke="#982c00" stroke-linecap="round" stroke-linejoin="round" stroke-width="5.85927"/><path d="m42.2616 46.1301c2.6861 0 4.867 2.5253 4.867 5.6354 0 3.1102-2.1809 5.6354-4.867 5.6354s-4.8671-2.5252-4.8671-5.6354c0-3.1101 2.181-5.6354 4.8671-5.6354z" stroke="#ffc000" stroke-width="2.66331"/><path d="m60.0533 41.7965c.8357.1731 1.0746 2.4367.5331 5.0516-.5416 2.6149-1.6598 4.5975-2.4955 4.4244s-1.0746-2.4367-.533-5.0516c.5415-2.6149 1.6597-4.5975 2.4954-4.4244z" stroke="#982c00" stroke-linecap="round" stroke-linejoin="round" stroke-width="5.85927"/><path d="m28.6538 24.382 30.4648 17.2396c.1464.0829.2559.217.3096.3764.1943.5763.557 2.1162.0387 4.6079-.5226 2.5126-1.4658 3.7677-1.8728 4.2128-.1126.1232-.2654.2013-.4314.2187l-34.815 3.662s4.6226-2.2187 7.1416-14.329c2.5918-12.4598-.8355-15.9884-.8355-15.9884z" stroke="#972c00" stroke-linecap="round" stroke-linejoin="round" stroke-width="3.375"/><path d="m28.6538 24.382 30.4648 17.2396c.1464.0829.2559.217.3096.3764.1943.5763.557 2.1162.0387 4.6079-.5226 2.5126-1.4658 3.7677-1.8728 4.2128-.1126.1232-.2654.2013-.4314.2187l-34.815 3.662s4.6226-2.2187 7.1416-14.329c2.5918-12.4598-.8355-15.9884-.8355-15.9884z" fill="url(#a)"/><path d="m28.5952 24.4376c2.1987.4553 2.5858 7.5759.8639 15.8907s-4.9051 14.6961-7.1038 14.2407c-2.1987-.4553-2.5858-7.5759-.8639-15.8907s4.9051-14.6961 7.1038-14.2407z" stroke="#982c00" stroke-linecap="round" stroke-linejoin="round" stroke-width="6.21438"/><path d="m58.9455 41.6572c.8363.1732 1.0835 2.3958.5525 4.9598-.531 2.5641-1.6405 4.5057-2.4769 4.3325-.8354-.173-1.0826-2.3956-.5516-4.9596.531-2.5641 1.6406-4.5057 2.476-4.3327z" fill="#977c13"/><path d="m60.0533 41.7965c.8357.1731 1.0746 2.4367.5331 5.0516-.5416 2.6149-1.6598 4.5975-2.4955 4.4244s-1.0746-2.4367-.533-5.0516c.5415-2.6149 1.6597-4.5975 2.4954-4.4244z" stroke="#ffc000" stroke-width="2.48575"/><path d="m28.6538 24.382 30.4648 17.2396c.1464.0829.2559.217.3096.3764.1943.5763.557 2.1162.0387 4.6079-.5226 2.5126-1.4658 3.7677-1.8728 4.2128-.1126.1232-.2654.2013-.4314.2187l-34.815 3.662s4.6226-2.2187 7.1416-14.329c2.5918-12.4598-.8355-15.9884-.8355-15.9884z" fill="url(#a)"/><g stroke-linecap="round" stroke-linejoin="round"><path d="m33.0625 29.1266c1.9417 1.0988 5.4484 3.0832 9.0948 5.1466" stroke="#fff" stroke-width="1.87687"/><path d="m48.1715 49.3237c-1.062.1117-2.2333.2349-3.4644.3644" stroke="#fff" stroke-width="1.87687"/><path d="m28.5952 24.4376c2.1987.4553 2.5858 7.5759.8639 15.8907s-4.9051 14.6961-7.1038 14.2407c-2.1987-.4553-2.5858-7.5759-.8639-15.8907s4.9051-14.6961 7.1038-14.2407z" stroke="#982c00" stroke-width="6.21438"/></g><path d="m28.5952 24.4376c2.1987.4553 2.5858 7.5759.8639 15.8907s-4.9051 14.6961-7.1038 14.2407c-2.1987-.4553-2.5858-7.5759-.8639-15.8907s4.9051-14.6961 7.1038-14.2407z" fill="url(#b)"/><path d="m28.5952 24.4376c2.1987.4553 2.5858 7.5759.8639 15.8907s-4.9051 14.6961-7.1038 14.2407c-2.1987-.4553-2.5858-7.5759-.8639-15.8907s4.9051-14.6961 7.1038-14.2407z" stroke="#ffd34c" stroke-width="3.01841"/></g></svg>

<svg width="80" height="80" viewBox="0 0 80 80" fill="none" xmlns="http://www.w3.org/2000/svg">
<path d="M0 24C0 10.7452 10.7452 0 24 0H56C69.2548 0 80 10.7452 80 24V56C80 69.2548 69.2548 80 56 80H24C10.7452 80 0 69.2548 0 56V24Z" fill="#222425"/>
<mask id="mask0_1_1412" style="mask-type:luminance" maskUnits="userSpaceOnUse" x="16" y="16" width="48" height="48">
<path d="M64 16H16V64H64V16Z" fill="white"/>
</mask>
<g mask="url(#mask0_1_1412)">
<path d="M42.2616 46.1301C44.9477 46.1301 47.1286 48.6554 47.1286 51.7655C47.1286 54.8757 44.9477 57.4009 42.2616 57.4009C39.5755 57.4009 37.3945 54.8757 37.3945 51.7655C37.3945 48.6554 39.5755 46.1301 42.2616 46.1301Z" stroke="#982C00" stroke-width="5.85927" stroke-linecap="round" stroke-linejoin="round"/>
<path d="M42.2616 46.1301C44.9477 46.1301 47.1286 48.6554 47.1286 51.7655C47.1286 54.8757 44.9477 57.4009 42.2616 57.4009C39.5755 57.4009 37.3945 54.8757 37.3945 51.7655C37.3945 48.6554 39.5755 46.1301 42.2616 46.1301Z" stroke="#FFC000" stroke-width="2.66331"/>
<path d="M60.0533 41.7965C60.889 41.9696 61.1279 44.2332 60.5864 46.8481C60.0448 49.463 58.9266 51.4456 58.0909 51.2725C57.2552 51.0994 57.0163 48.8358 57.5579 46.2209C58.0994 43.606 59.2176 41.6234 60.0533 41.7965Z" stroke="#982C00" stroke-width="5.85927" stroke-linecap="round" stroke-linejoin="round"/>
<path d="M28.6538 24.382L59.1186 41.6216C59.265 41.7045 59.3745 41.8386 59.4282 41.998C59.6225 42.5743 59.9852 44.1142 59.4669 46.6059C58.9443 49.1185 58.0011 50.3736 57.5941 50.8187C57.4815 50.9419 57.3287 51.02 57.1627 51.0374L22.3477 54.6994C22.3477 54.6994 26.9703 52.4807 29.4893 40.3704C32.0811 27.9106 28.6538 24.382 28.6538 24.382Z" stroke="#972C00" stroke-width="3.375" stroke-linecap="round" stroke-linejoin="round"/>
<path d="M28.6538 24.382L59.1186 41.6216C59.265 41.7045 59.3745 41.8386 59.4282 41.998C59.6225 42.5743 59.9852 44.1142 59.4669 46.6059C58.9443 49.1185 58.0011 50.3736 57.5941 50.8187C57.4815 50.9419 57.3287 51.02 57.1627 51.0374L22.3477 54.6994C22.3477 54.6994 26.9703 52.4807 29.4893 40.3704C32.0811 27.9106 28.6538 24.382 28.6538 24.382Z" fill="url(#paint0_linear_1_1412)"/>
<path d="M28.5952 24.4376C30.7939 24.8929 31.181 32.0135 29.4591 40.3283C27.7372 48.6431 24.554 55.0244 22.3553 54.569C20.1566 54.1137 19.7695 46.9931 21.4914 38.6783C23.2133 30.3635 26.3965 23.9822 28.5952 24.4376Z" stroke="#982C00" stroke-width="6.21438" stroke-linecap="round" stroke-linejoin="round"/>
<path d="M58.9455 41.6572C59.7818 41.8304 60.029 44.053 59.498 46.617C58.967 49.1811 57.8575 51.1227 57.0211 50.9495C56.1857 50.7765 55.9385 48.5539 56.4695 45.9899C57.0005 43.4258 58.1101 41.4842 58.9455 41.6572Z" fill="#977C13"/>
<path d="M60.0533 41.7965C60.889 41.9696 61.1279 44.2332 60.5864 46.8481C60.0448 49.463 58.9266 51.4456 58.0909 51.2725C57.2552 51.0994 57.0163 48.8358 57.5579 46.2209C58.0994 43.606 59.2176 41.6234 60.0533 41.7965Z" stroke="#FFC000" stroke-width="2.48575"/>
<path d="M28.6538 24.382L59.1186 41.6216C59.265 41.7045 59.3745 41.8386 59.4282 41.998C59.6225 42.5743 59.9852 44.1142 59.4669 46.6059C58.9443 49.1185 58.0011 50.3736 57.5941 50.8187C57.4815 50.9419 57.3287 51.02 57.1627 51.0374L22.3477 54.6994C22.3477 54.6994 26.9703 52.4807 29.4893 40.3704C32.0811 27.9106 28.6538 24.382 28.6538 24.382Z" fill="url(#paint1_linear_1_1412)"/>
<path d="M33.0625 29.1266C35.0042 30.2254 38.5109 32.2098 42.1573 34.2732" stroke="white" stroke-width="1.87687" stroke-linecap="round" stroke-linejoin="round"/>
<path d="M48.1715 49.3237C47.1095 49.4354 45.9382 49.5586 44.7071 49.6881" stroke="white" stroke-width="1.87687" stroke-linecap="round" stroke-linejoin="round"/>
<path d="M28.5952 24.4376C30.7939 24.8929 31.181 32.0135 29.4591 40.3283C27.7372 48.6431 24.554 55.0244 22.3553 54.569C20.1566 54.1137 19.7695 46.9931 21.4914 38.6783C23.2133 30.3635 26.3965 23.9822 28.5952 24.4376Z" stroke="#982C00" stroke-width="6.21438" stroke-linecap="round" stroke-linejoin="round"/>
<path d="M28.5952 24.4376C30.7939 24.8929 31.181 32.0135 29.4591 40.3283C27.7372 48.6431 24.554 55.0244 22.3553 54.569C20.1566 54.1137 19.7695 46.9931 21.4914 38.6783C23.2133 30.3635 26.3965 23.9822 28.5952 24.4376Z" fill="url(#paint2_linear_1_1412)"/>
<path d="M28.5952 24.4376C30.7939 24.8929 31.181 32.0135 29.4591 40.3283C27.7372 48.6431 24.554 55.0244 22.3553 54.569C20.1566 54.1137 19.7695 46.9931 21.4914 38.6783C23.2133 30.3635 26.3965 23.9822 28.5952 24.4376Z" stroke="#FFD34C" stroke-width="3.01841"/>
</g>
<defs>
<linearGradient id="paint0_linear_1_1412" x1="38.4848" y1="51.6029" x2="47.5434" y2="25.3599" gradientUnits="userSpaceOnUse">
<stop stop-color="#E94D00"/>
<stop offset="0.5" stop-color="#F49300"/>
<stop offset="1" stop-color="#FFD900"/>
</linearGradient>
<linearGradient id="paint1_linear_1_1412" x1="38.4848" y1="51.6029" x2="47.5434" y2="25.3599" gradientUnits="userSpaceOnUse">
<stop stop-color="#E94D00"/>
<stop offset="0.5" stop-color="#F49300"/>
<stop offset="1" stop-color="#FFD900"/>
</linearGradient>
<linearGradient id="paint2_linear_1_1412" x1="19.5989" y1="31.7993" x2="32.6512" y2="45.3483" gradientUnits="userSpaceOnUse">
<stop stop-color="#EA5000"/>
<stop offset="0.34" stop-color="#A83700"/>
<stop offset="0.68" stop-color="#651D00"/>
</linearGradient>
</defs>
</svg>
